SVG_Azure_Grouped/Data/Data Transfer.svg

<?xml version="1.0" encoding="UTF-8" standalone="no"?>
<!-- Generated by Microsoft Visio, SVG Export Data Transfer.svg Page-1 -->

<svg
   xmlns:dc="http://purl.org/dc/elements/1.1/"
   xmlns:cc="http://creativecommons.org/ns#"
   xmlns:rdf="http://www.w3.org/1999/02/22-rdf-syntax-ns#"
   xmlns:svg="http://www.w3.org/2000/svg"
   xmlns="http://www.w3.org/2000/svg"
   xmlns:sodipodi="http://sodipodi.sourceforge.net/DTD/sodipodi-0.dtd"
   xmlns:inkscape="http://www.inkscape.org/namespaces/inkscape"
   width="0.78738779in"
   height="0.74794066in"
   viewBox="0 0 56.691989 53.851812"
   xml:space="preserve"
   class="st8"
   version="1.1"
   id="svg49"
   sodipodi:docname="Data Transfer.svg"
   style="font-size:12px;overflow:visible;color-interpolation-filters:sRGB;fill:none;fill-rule:evenodd;stroke-linecap:square;stroke-miterlimit:3"
   inkscape:version="0.92.5 (2060ec1f9f, 2020-04-08)"><metadata
   id="metadata55"><rdf:RDF><cc:Work
       rdf:about=""><dc:format>image/svg+xml</dc:format><dc:type
         rdf:resource="http://purl.org/dc/dcmitype/StillImage" /></cc:Work></rdf:RDF></metadata><defs
   id="defs53" /><sodipodi:namedview
   pagecolor="#ffffff"
   bordercolor="#666666"
   borderopacity="1"
   objecttolerance="10"
   gridtolerance="10"
   guidetolerance="10"
   inkscape:pageopacity="0"
   inkscape:pageshadow="2"
   inkscape:window-width="640"
   inkscape:window-height="480"
   id="namedview51"
   showgrid="false"
   inkscape:zoom="1.7679873"
   inkscape:cx="37.795224"
   inkscape:cy="21.383051"
   inkscape:window-x="0"
   inkscape:window-y="0"
   inkscape:window-maximized="0"
   inkscape:current-layer="svg49" />
	<style
   type="text/css"
   id="style2">
	<![CDATA[
		.st1 {fill:#3999c6;stroke:none;stroke-linecap:butt;stroke-width:12.24}
		.st2 {fill:#000000;fill-opacity:0.15;stroke:none;stroke-linecap:butt;stroke-width:12.24}
		.st3 {fill:#ffffff;stroke:none;stroke-linecap:butt;stroke-width:12.24}
		.st4 {fill:#57a300;stroke:none;stroke-linecap:butt;stroke-width:12.24}
		.st5 {fill:#b8d432;stroke:none;stroke-linecap:butt;stroke-width:12.24}
		.st6 {fill:#ffffff;fill-opacity:0.4;stroke:none;stroke-linecap:butt;stroke-width:12.24}
		.st7 {fill:#804998;stroke:none;stroke-linecap:butt;stroke-width:12.24}
		.st8 {fill:none;fill-rule:evenodd;font-size:12px;overflow:visible;stroke-linecap:square;stroke-miterlimit:3}
	]]>
	</style>

	<g
   id="g47"
   transform="translate(-12.24,-12.2425)">
		<title
   id="title4">Page-1</title>
		<g
   id="group19452-1"
   transform="translate(12.24,-34.0157)">
			<title
   id="title6">Data Transfer.19452</title>
			<g
   id="group19453-2">
				<title
   id="title8">g18</title>
				<g
   id="shape19454-3"
   transform="translate(0.00113386)">
					<title
   id="title10">path4</title>
					<path
   d="m 0,55.75 v 35.26 c 0,4.98 8.06,9.1 18.14,9.1 10.08,0 18.14,-4.07 18.14,-9.1 V 55.75 Z"
   class="st1"
   id="path12"
   inkscape:connector-curvature="0"
   style="fill:#3999c6;stroke:none;stroke-width:12.23999977;stroke-linecap:butt" />
				</g>
				<g
   id="shape19455-5"
   transform="translate(18.1417)">
					<title
   id="title15">path6</title>
					<path
   d="m 0,100.11 c 10.08,0 18.14,-4.07 18.14,-9.1 V 55.75 H 0 Z"
   class="st2"
   id="path17"
   inkscape:connector-curvature="0"
   style="fill:#000000;fill-opacity:0.15;stroke:none;stroke-width:12.23999977;stroke-linecap:butt" />
				</g>
				<g
   id="shape19456-7"
   transform="translate(0,-34.9918)">
					<title
   id="title20">path8</title>
					<path
   d="m 36.28,90.68 c 0,5.21 -8.12,9.43 -18.14,9.43 C 8.12,100.11 0,95.89 0,90.68 c 0,-5.21 8.12,-9.43 18.14,-9.43 10.02,0 18.14,4.22 18.14,9.43 z"
   class="st3"
   id="path22"
   inkscape:connector-curvature="0"
   style="fill:#ffffff;stroke:none;stroke-width:12.23999977;stroke-linecap:butt" />
				</g>
				<g
   id="shape19457-9"
   transform="translate(3.70885,-39.099)">
					<title
   id="title25">path10</title>
					<path
   d="m 28.87,94.12 c 0,3.31 -6.47,5.99 -14.44,5.99 C 6.46,100.11 0,97.43 0,94.12 c 0,-3.31 6.46,-6 14.43,-6 7.97,0 14.44,2.69 14.44,6 z"
   class="st4"
   id="path27"
   inkscape:connector-curvature="0"
   style="fill:#57a300;stroke:none;stroke-width:12.23999977;stroke-linecap:butt" />
				</g>
				<g
   id="shape19458-11"
   transform="translate(3.71112,-41.4306)">
					<title
   id="title30">path12</title>
					<path
   d="m 25.84,100.11 c 1.89,-1.01 3.02,-2.28 3.02,-3.66 0,-3.31 -6.46,-5.99 -14.43,-5.99 C 6.46,90.46 0,93.14 0,96.45 c 0,1.38 1.13,2.65 3.03,3.66 2.63,-1.41 6.76,-2.33 11.4,-2.33 4.65,0 8.77,0.92 11.41,2.33 z"
   class="st5"
   id="path32"
   inkscape:connector-curvature="0"
   style="fill:#b8d432;stroke:none;stroke-width:12.23999977;stroke-linecap:butt" />
				</g>
				<g
   id="shape19459-13"
   transform="translate(26.1732,-16.0928)">
					<title
   id="title35">path14</title>
					<path
   d="M 10.11,84.15 0.5,93.91 a 1.70079,1.72623 -180 0 0 0,2.45 l 3.2,3.25 a 1.70079,1.72623 -180 0 0 2.41,0 l 4,-4.07 z"
   class="st6"
   id="path37"
   inkscape:connector-curvature="0"
   style="fill:#ffffff;fill-opacity:0.4;stroke:none;stroke-width:12.23999977;stroke-linecap:butt" />
				</g>
				<g
   id="shape19460-15"
   transform="translate(27.072,-17.0045)">
					<title
   id="title40">path16</title>
					<path
   d="M 0,96.05 19.07,76.69 14.66,72.22 29.62,70.05 27.48,85.24 23.07,80.76 4.01,100.11 Z"
   class="st7"
   id="path42"
   inkscape:connector-curvature="0"
   style="fill:#804998;stroke:none;stroke-width:12.23999977;stroke-linecap:butt" />
				</g>
			</g>
		</g>
	</g>
</svg>

<?xml version="1.0" encoding="UTF-8" standalone="no"?>
<!DOCTYPE svg PUBLIC "-//W3C//DTD SVG 1.1//EN" "http://www.w3.org/Graphics/SVG/1.1/DTD/svg11.dtd">
<!-- Generated by Microsoft Visio, SVG Export Data Transfer.svg Page-1 -->
<svg xmlns="http://www.w3.org/2000/svg" xmlns:xlink="http://www.w3.org/1999/xlink" xmlns:ev="http://www.w3.org/2001/xml-events"
		width="1.1274in" height="1.39047in" viewBox="0 0 81.1729 100.114" xml:space="preserve" color-interpolation-filters="sRGB"
		class="st8">
	<style type="text/css">
	<![CDATA[
		.st1 {fill:#3999c6;stroke:none;stroke-linecap:butt;stroke-width:12.24}
		.st2 {fill:#000000;fill-opacity:0.15;stroke:none;stroke-linecap:butt;stroke-width:12.24}
		.st3 {fill:#ffffff;stroke:none;stroke-linecap:butt;stroke-width:12.24}
		.st4 {fill:#57a300;stroke:none;stroke-linecap:butt;stroke-width:12.24}
		.st5 {fill:#b8d432;stroke:none;stroke-linecap:butt;stroke-width:12.24}
		.st6 {fill:#ffffff;fill-opacity:0.4;stroke:none;stroke-linecap:butt;stroke-width:12.24}
		.st7 {fill:#804998;stroke:none;stroke-linecap:butt;stroke-width:12.24}
		.st8 {fill:none;fill-rule:evenodd;font-size:12px;overflow:visible;stroke-linecap:square;stroke-miterlimit:3}
	]]>
	</style>

	<g>
		<title>Page-1</title>
		<g id="group19003-1" transform="translate(12.24,-34.0157)">
			<title>Data Transfer.19003</title>
			<g id="group19004-2">
				<title>g18</title>
				<g id="shape19005-3" transform="translate(0.00113386,-2.70006E-13)">
					<title>path4</title>
					<path d="M0 55.75 L0 91.01 C0 95.99 8.06 100.11 18.14 100.11 C28.22 100.11 36.28 96.04 36.28 91.01 L36.28 55.75
								 L0 55.75 Z" class="st1"/>
				</g>
				<g id="shape19006-5" transform="translate(18.1417,-2.70006E-13)">
					<title>path6</title>
					<path d="M0 100.11 C10.08 100.11 18.14 96.04 18.14 91.01 L18.14 55.75 L0 55.75 L0 100.11 Z" class="st2"/>
				</g>
				<g id="shape19007-7" transform="translate(0,-34.9918)">
					<title>path8</title>
					<path d="M36.28 90.68 C36.28 95.89 28.16 100.11 18.14 100.11 C8.12 100.11 0 95.89 0 90.68 C0 85.47 8.12 81.25
								 18.14 81.25 C28.16 81.25 36.28 85.47 36.28 90.68 Z" class="st3"/>
				</g>
				<g id="shape19008-9" transform="translate(3.70885,-39.099)">
					<title>path10</title>
					<path d="M28.87 94.12 C28.87 97.43 22.4 100.11 14.43 100.11 C6.46 100.11 0 97.43 0 94.12 C0 90.81 6.46 88.12
								 14.43 88.12 C22.4 88.12 28.87 90.81 28.87 94.12 Z" class="st4"/>
				</g>
				<g id="shape19009-11" transform="translate(3.71112,-41.4306)">
					<title>path12</title>
					<path d="M25.84 100.11 C27.73 99.1 28.86 97.83 28.86 96.45 C28.86 93.14 22.4 90.46 14.43 90.46 C6.46 90.46 0
								 93.14 0 96.45 C0 97.83 1.13 99.1 3.03 100.11 C5.66 98.7 9.79 97.78 14.43 97.78 C19.08 97.78 23.2
								 98.7 25.84 100.11 Z" class="st5"/>
				</g>
				<g id="shape19010-13" transform="translate(26.1732,-16.0928)">
					<title>path14</title>
					<path d="M10.11 84.15 L0.5 93.91 A1.70079 1.72623 -180 0 0 0.5 96.36 L3.7 99.61 A1.70079 1.72623 -180 0 0 6.11
								 99.61 L10.11 95.54 L10.11 84.15 Z" class="st6"/>
				</g>
				<g id="shape19011-15" transform="translate(27.072,-17.0045)">
					<title>path16</title>
					<path d="M0 96.05 L19.07 76.69 L14.66 72.22 L29.62 70.05 L27.48 85.24 L23.07 80.76 L4.01 100.11 L0 96.05 Z"
							class="st7"/>
				</g>
			</g>
		</g>
	</g>
</svg>
